components/Common/Svg/svgs/titledPubNub.svg

<svg width="146" height="100" viewBox="0 0 146 100" fill="none" xmlns="http://www.w3.org/2000/svg">
<mask id="mask0_6986_44185" style="mask-type:alpha" maskUnits="userSpaceOnUse" x="0" y="0" width="146" height="34">
<path fill-rule="evenodd" clip-rule="evenodd" d="M0.464844 0H145.535V33.1588H0.464844V0Z" fill="white"/>
</mask>
<g mask="url(#mask0_6986_44185)">
<path fill-rule="evenodd" clip-rule="evenodd" d="M51.4921 21.0899C51.4921 23.483 51.4983 25.8762 51.4844 28.2693C51.4827 28.5735 51.5855 28.695 51.854 28.7939C53.2374 29.3037 54.6604 29.6297 56.1245 29.7377C57.1558 29.8136 58.1902 29.8081 59.2044 29.5353C61.134 29.0162 62.2689 27.685 62.7914 25.7891C63.5541 23.0219 63.6236 20.2084 63.1674 17.3816C62.9766 16.1992 62.5796 15.0894 61.7838 14.1738C60.6216 12.837 59.0916 12.3716 57.4097 12.3489C55.4868 12.323 53.6296 12.7041 51.8321 13.4026C51.5771 13.5016 51.4829 13.621 51.4845 13.9103C51.498 16.3034 51.4921 18.6967 51.4921 21.0899ZM55.6779 33.1631C55.2201 33.1132 54.7621 33.0645 54.3044 33.0133C51.9091 32.7446 49.5682 32.2383 47.3039 31.3807C46.992 31.2625 46.8982 31.1014 46.8984 30.7651C46.9081 20.6601 46.9062 10.5549 46.9062 0.449906C46.9062 0.308777 46.9062 0.167648 46.9062 0C48.4281 0 49.9313 0 51.4808 0C51.4808 3.44426 51.4808 6.89462 51.4808 10.4094C51.7564 10.3094 51.972 10.233 52.1864 10.1531C54.4337 9.316 56.7435 8.88479 59.1448 8.99087C62.9411 9.15866 65.7724 11.2402 67.122 14.8642C67.74 16.5235 67.9786 18.2479 68.0069 20.0094C68.0413 22.1478 67.8856 24.2651 67.3179 26.3373C66.3091 30.0189 63.9207 32.1492 60.2756 32.8633C59.7189 32.9723 59.1498 33.015 58.587 33.0926C58.4988 33.1046 58.4136 33.139 58.3271 33.1631C57.444 33.1631 56.561 33.1631 55.6779 33.1631Z" fill="#6A6A6A"/>
<path fill-rule="evenodd" clip-rule="evenodd" d="M129.007 21.073C129.007 23.49 129.009 25.9071 129.005 28.3242C129.004 28.5307 129.026 28.6681 129.254 28.7523C131.23 29.4804 133.26 29.8722 135.364 29.7484C136.592 29.6761 137.741 29.3352 138.702 28.4967C139.603 27.7092 140.094 26.6672 140.382 25.529C141.047 22.891 141.122 20.2163 140.715 17.5322C140.538 16.365 140.172 15.2511 139.42 14.3181C138.26 12.8795 136.685 12.3734 134.937 12.3472C133.002 12.3183 131.132 12.7 129.325 13.4105C129.079 13.5074 129 13.6237 129 13.8929C129.012 16.2862 129.007 18.6796 129.007 21.073ZM133.206 33.1625C132.748 33.1128 132.29 33.0641 131.832 33.0132C129.437 32.7475 127.096 32.2393 124.832 31.3829C124.527 31.2674 124.417 31.1149 124.418 30.7705C124.428 20.6539 124.426 10.5373 124.426 0.420647C124.426 0.290894 124.426 0.16107 124.426 0.00195312C125.947 0.00195312 127.45 0.00195312 128.996 0.00195312C128.996 3.43832 128.996 6.88918 128.996 10.4064C129.311 10.2943 129.569 10.2052 129.825 10.1107C132.031 9.29719 134.299 8.88234 136.652 8.99147C140.522 9.17121 143.346 11.2751 144.688 14.9841C145.428 17.03 145.588 19.1577 145.524 21.311C145.468 23.196 145.257 25.0596 144.675 26.8656C143.623 30.1327 141.398 32.0532 138.147 32.7849C137.47 32.9374 136.772 32.9917 136.084 33.0939C135.984 33.1089 135.885 33.1393 135.785 33.1625C134.926 33.1625 134.065 33.1625 133.206 33.1625Z" fill="#6A6A6A"/>
<path fill-rule="evenodd" clip-rule="evenodd" d="M5.06531 15.6712C5.15991 15.6782 5.2168 15.6861 5.27362 15.6861C7.03944 15.6861 8.80597 15.7132 10.5709 15.6716C11.3076 15.6544 12.0537 15.5481 12.7734 15.3825C14.2666 15.0389 15.3725 14.2056 15.7814 12.6164C16.1163 11.3147 16.1621 9.99705 15.9241 8.67534C15.6436 7.11802 14.7644 6.06854 13.2462 5.70083C12.3387 5.48106 11.3969 5.341 10.4655 5.30645C8.79481 5.24445 7.12031 5.2886 5.44735 5.28967C5.32416 5.28974 5.2009 5.30012 5.06531 5.30624C5.06531 8.7753 5.06531 12.207 5.06531 15.6712ZM0.464355 1.88086C0.614105 1.89046 0.763784 1.90845 0.913533 1.90852C4.29307 1.91015 7.67267 1.89458 11.0521 1.91641C12.6559 1.92672 14.2448 2.09785 15.7899 2.58906C18.5768 3.47522 20.2191 5.52106 20.5404 8.48256C20.7076 10.0247 20.6857 11.5533 20.3696 13.0714C19.8063 15.7763 18.147 17.4676 15.6336 18.3599C14.2156 18.8633 12.7456 19.0531 11.2547 19.0689C9.33874 19.0891 7.42239 19.0737 5.50612 19.0737C5.36948 19.0737 5.23276 19.0737 5.05694 19.0737C5.05694 23.5876 5.05694 28.0687 5.05694 32.5951C3.49991 32.5951 1.98213 32.5951 0.464355 32.5951C0.464355 22.357 0.464355 12.1189 0.464355 1.88086Z" fill="#6A6A6A"/>
<path fill-rule="evenodd" clip-rule="evenodd" d="M31.6975 33.163C31.1372 33.0887 30.575 33.0265 30.017 32.9377C28.6875 32.7261 27.4181 32.3287 26.2642 31.6042C24.4702 30.4777 23.5535 28.7988 23.3466 26.6946C23.2877 26.0951 23.278 25.4889 23.2773 24.8857C23.2722 19.9094 23.2744 14.933 23.2744 9.95669C23.2744 9.81712 23.2744 9.67749 23.2744 9.51538C24.8081 9.51538 26.3111 9.51538 27.8582 9.51538C27.8582 9.67756 27.8582 9.82757 27.8582 9.97759C27.8582 14.4444 27.8529 18.9113 27.8619 23.3781C27.8642 24.4927 27.9581 25.6022 28.2833 26.6757C28.8199 28.4472 30.0217 29.4556 31.8001 29.6715C33.9801 29.9361 36.1292 29.6761 38.2427 29.0785C38.543 28.9936 38.635 28.8484 38.6345 28.5327C38.6254 22.3479 38.6277 16.1629 38.6277 9.97809C38.6277 9.82729 38.6277 9.67656 38.6277 9.50977C40.1683 9.50977 41.662 9.50977 43.2103 9.50977C43.2103 9.67336 43.2103 9.82231 43.2103 9.97119C43.2103 17.0092 43.2078 24.0472 43.2177 31.0851C43.2181 31.4265 43.1277 31.5716 42.793 31.6645C40.1098 32.4095 37.3867 32.9063 34.6116 33.1021C34.5223 33.1083 34.435 33.1421 34.3467 33.163C33.4636 33.163 32.5806 33.163 31.6975 33.163Z" fill="#6A6A6A"/>
<path fill-rule="evenodd" clip-rule="evenodd" d="M96.3628 32.5896C94.9169 32.5896 93.5121 32.5896 92.1066 32.5896C91.3049 32.5896 90.5032 32.5783 89.7021 32.596C89.4372 32.6019 89.2887 32.5275 89.1625 32.2779C87.3025 28.5977 85.4321 24.9227 83.563 21.2474C81.01 16.2279 78.4556 11.2091 75.9012 6.19057C75.8559 6.10191 75.7995 6.01923 75.6858 5.95033C75.6858 14.8144 75.6858 23.6785 75.6858 32.566C74.3312 32.566 73.0136 32.566 71.6758 32.566C71.6758 22.3599 71.6758 12.1641 71.6758 1.92983C71.7824 1.92322 71.894 1.91035 72.0062 1.91028C74.097 1.90907 76.1885 1.91312 78.2792 1.90431C78.5198 1.90331 78.6446 1.97711 78.7589 2.20192C83.2026 10.9384 87.6546 19.6707 92.1059 28.4032C92.1527 28.4942 92.2063 28.5815 92.3248 28.6573C92.3248 19.7607 92.3248 10.864 92.3248 1.93843C93.6975 1.93843 95.0242 1.93843 96.3628 1.93843C96.3628 12.1545 96.3628 22.3502 96.3628 32.5896Z" fill="#6A6A6A"/>
<path fill-rule="evenodd" clip-rule="evenodd" d="M109.221 33.1626C108.66 33.0886 108.098 33.0254 107.54 32.9384C106.233 32.7347 104.984 32.3441 103.844 31.6457C102.028 30.5326 101.086 28.8569 100.869 26.7368C100.812 26.1849 100.801 25.6262 100.801 25.0705C100.796 20.0346 100.798 14.9987 100.798 9.96269C100.798 9.82256 100.798 9.68242 100.798 9.51734C102.327 9.51734 103.83 9.51734 105.382 9.51734C105.382 9.6724 105.382 9.82185 105.382 9.97129C105.382 14.5214 105.376 19.0715 105.386 23.6216C105.388 24.6894 105.506 25.7475 105.833 26.7712C106.389 28.5131 107.602 29.4655 109.346 29.6756C111.48 29.9326 113.583 29.6656 115.657 29.1173C116.026 29.0196 116.162 28.8456 116.162 28.4326C116.146 22.2829 116.151 16.133 116.151 9.98331C116.151 9.83244 116.151 9.68164 116.151 9.51172C117.689 9.51172 119.182 9.51172 120.712 9.51172C120.719 9.6441 120.733 9.76938 120.733 9.89465C120.734 16.9805 120.732 24.0663 120.74 31.1522C120.741 31.4416 120.656 31.5642 120.384 31.6409C117.691 32.3972 114.957 32.9003 112.17 33.0979C112.069 33.105 111.97 33.1405 111.87 33.1626C110.987 33.1626 110.104 33.1626 109.221 33.1626Z" fill="#6A6A6A"/>
</g>
<path d="M48.2388 81.126C48.2388 82.17 47.8788 83.04 47.1588 83.736C46.4508 84.42 45.3648 84.762 43.9008 84.762H41.4888V90H39.8508V77.454H43.9008C45.3168 77.454 46.3908 77.796 47.1228 78.48C47.8668 79.164 48.2388 80.046 48.2388 81.126ZM43.9008 83.412C44.8128 83.412 45.4848 83.214 45.9168 82.818C46.3488 82.422 46.5648 81.858 46.5648 81.126C46.5648 79.578 45.6768 78.804 43.9008 78.804H41.4888V83.412H43.9008ZM59.0227 80.136V90H57.3847V88.542C57.0727 89.046 56.6347 89.442 56.0707 89.73C55.5187 90.006 54.9067 90.144 54.2347 90.144C53.4667 90.144 52.7767 89.988 52.1647 89.676C51.5527 89.352 51.0667 88.872 50.7067 88.236C50.3587 87.6 50.1847 86.826 50.1847 85.914V80.136H51.8047V85.698C51.8047 86.67 52.0507 87.42 52.5427 87.948C53.0347 88.464 53.7067 88.722 54.5587 88.722C55.4347 88.722 56.1247 88.452 56.6287 87.912C57.1327 87.372 57.3847 86.586 57.3847 85.554V80.136H59.0227ZM63.4263 81.972C63.7623 81.384 64.2543 80.904 64.9023 80.532C65.5503 80.16 66.2883 79.974 67.1163 79.974C68.0043 79.974 68.8023 80.184 69.5103 80.604C70.2183 81.024 70.7763 81.618 71.1843 82.386C71.5923 83.142 71.7963 84.024 71.7963 85.032C71.7963 86.028 71.5923 86.916 71.1843 87.696C70.7763 88.476 70.2123 89.082 69.4923 89.514C68.7843 89.946 67.9923 90.162 67.1163 90.162C66.2643 90.162 65.5143 89.976 64.8663 89.604C64.2303 89.232 63.7503 88.758 63.4263 88.182V90H61.7883V76.68H63.4263V81.972ZM70.1223 85.032C70.1223 84.288 69.9723 83.64 69.6723 83.088C69.3723 82.536 68.9643 82.116 68.4483 81.828C67.9443 81.54 67.3863 81.396 66.7743 81.396C66.1743 81.396 65.6163 81.546 65.1003 81.846C64.5963 82.134 64.1883 82.56 63.8763 83.124C63.5763 83.676 63.4263 84.318 63.4263 85.05C63.4263 85.794 63.5763 86.448 63.8763 87.012C64.1883 87.564 64.5963 87.99 65.1003 88.29C65.6163 88.578 66.1743 88.722 66.7743 88.722C67.3863 88.722 67.9443 88.578 68.4483 88.29C68.9643 87.99 69.3723 87.564 69.6723 87.012C69.9723 86.448 70.1223 85.788 70.1223 85.032ZM78.7584 79.956C79.9584 79.956 80.9304 80.322 81.6744 81.054C82.4184 81.774 82.7904 82.818 82.7904 84.186V90H81.1704V84.42C81.1704 83.436 80.9244 82.686 80.4324 82.17C79.9404 81.642 79.2684 81.378 78.4164 81.378C77.5524 81.378 76.8624 81.648 76.3464 82.188C75.8424 82.728 75.5904 83.514 75.5904 84.546V90H73.9524V80.136H75.5904V81.54C75.9144 81.036 76.3524 80.646 76.9044 80.37C77.4684 80.094 78.0864 79.956 78.7584 79.956ZM94.2141 80.136V90H92.5761V88.542C92.2641 89.046 91.8261 89.442 91.2621 89.73C90.7101 90.006 90.0981 90.144 89.4261 90.144C88.6581 90.144 87.9681 89.988 87.3561 89.676C86.7441 89.352 86.2581 88.872 85.8981 88.236C85.5501 87.6 85.3761 86.826 85.3761 85.914V80.136H86.9961V85.698C86.9961 86.67 87.2421 87.42 87.7341 87.948C88.2261 88.464 88.8981 88.722 89.7501 88.722C90.6261 88.722 91.3161 88.452 91.8201 87.912C92.3241 87.372 92.5761 86.586 92.5761 85.554V80.136H94.2141ZM98.6178 81.972C98.9538 81.384 99.4458 80.904 100.094 80.532C100.742 80.16 101.48 79.974 102.308 79.974C103.196 79.974 103.994 80.184 104.702 80.604C105.41 81.024 105.968 81.618 106.376 82.386C106.784 83.142 106.988 84.024 106.988 85.032C106.988 86.028 106.784 86.916 106.376 87.696C105.968 88.476 105.404 89.082 104.684 89.514C103.976 89.946 103.184 90.162 102.308 90.162C101.456 90.162 100.706 89.976 100.058 89.604C99.4218 89.232 98.9418 88.758 98.6178 88.182V90H96.9798V76.68H98.6178V81.972ZM105.314 85.032C105.314 84.288 105.164 83.64 104.864 83.088C104.564 82.536 104.156 82.116 103.64 81.828C103.136 81.54 102.578 81.396 101.966 81.396C101.366 81.396 100.808 81.546 100.292 81.846C99.7878 82.134 99.3798 82.56 99.0678 83.124C98.7678 83.676 98.6178 84.318 98.6178 85.05C98.6178 85.794 98.7678 86.448 99.0678 87.012C99.3798 87.564 99.7878 87.99 100.292 88.29C100.808 88.578 101.366 88.722 101.966 88.722C102.578 88.722 103.136 88.578 103.64 88.29C104.156 87.99 104.564 87.564 104.864 87.012C105.164 86.448 105.314 85.788 105.314 85.032Z" fill="#A0A0A0"/>
</svg>

<svg width="146" height="100" viewBox="0 0 146 100" fill="none" xmlns="http://www.w3.org/2000/svg"><mask id="a" style="mask-type:alpha" maskUnits="userSpaceOnUse" x="0" y="0" width="146" height="34"><path fill-rule="evenodd" clip-rule="evenodd" d="M.465 0h145.07v33.159H.465V0Z" fill="#fff"/></mask><g mask="url(#a)" fill-rule="evenodd" clip-rule="evenodd" fill="#6A6A6A"><path d="M51.492 21.09c0 2.393.006 4.786-.008 7.18-.001.303.102.425.37.524 1.383.51 2.806.836 4.27.944 1.032.076 2.066.07 3.08-.203 1.93-.519 3.065-1.85 3.587-3.746.763-2.767.833-5.58.376-8.407-.19-1.183-.587-2.293-1.383-3.208-1.162-1.337-2.692-1.802-4.374-1.825-1.923-.026-3.78.355-5.578 1.054-.255.099-.35.218-.348.507.014 2.393.008 4.787.008 7.18Zm4.186 12.073c-.458-.05-.916-.098-1.374-.15-2.395-.268-4.736-.775-7-1.632-.312-.119-.406-.28-.406-.616.01-10.105.008-20.21.008-30.315V0h4.575v10.41c.275-.1.491-.177.705-.257 2.248-.837 4.557-1.268 6.959-1.162 3.796.168 6.627 2.25 7.977 5.873.618 1.66.857 3.384.885 5.145.034 2.139-.121 4.256-.69 6.328-1.008 3.682-3.396 5.812-7.041 6.526-.557.11-1.126.152-1.689.23-.088.012-.173.046-.26.07h-2.65ZM129.007 21.073c0 2.417.002 4.834-.002 7.251-.001.207.021.344.249.428 1.976.728 4.006 1.12 6.11.996 1.228-.072 2.377-.413 3.338-1.251.901-.788 1.392-1.83 1.68-2.968.665-2.638.74-5.313.333-7.997-.177-1.167-.543-2.28-1.295-3.214-1.16-1.438-2.735-1.945-4.483-1.97-1.935-.03-3.805.352-5.612 1.063-.246.096-.325.213-.325.482.012 2.393.007 4.787.007 7.18Zm4.199 12.09-1.374-.15c-2.395-.265-4.736-.774-7-1.63-.305-.116-.415-.268-.414-.613.01-10.116.008-20.233.008-30.35V.003h4.57v10.404c.315-.112.573-.2.829-.295 2.206-.814 4.474-1.229 6.827-1.12 3.87.18 6.694 2.284 8.036 5.993.74 2.046.9 4.174.836 6.327-.056 1.885-.267 3.749-.849 5.555-1.052 3.267-3.277 5.187-6.528 5.919-.677.152-1.375.207-2.063.309-.1.015-.199.045-.299.069h-2.579ZM5.065 15.671c.095.007.152.015.209.015 1.765 0 3.532.027 5.297-.014a11.041 11.041 0 0 0 2.202-.29c1.494-.343 2.6-1.176 3.008-2.766a9.15 9.15 0 0 0 .143-3.94c-.28-1.558-1.16-2.607-2.678-2.975-.907-.22-1.85-.36-2.78-.395-1.671-.062-3.346-.017-5.019-.016-.123 0-.246.01-.382.016v10.365Zm-4.6-13.79c.15.01.299.027.449.028 3.38.001 6.759-.014 10.138.007 1.604.01 3.193.182 4.738.673 2.787.886 4.43 2.932 4.75 5.894.168 1.542.146 3.07-.17 4.588-.564 2.705-2.223 4.397-4.736 5.289-1.418.503-2.888.693-4.38.709-1.915.02-3.832.005-5.748.005h-.45v13.521H.465V1.881ZM31.698 33.163c-.56-.074-1.123-.136-1.681-.225-1.33-.212-2.599-.61-3.753-1.334-1.794-1.126-2.71-2.805-2.917-4.91-.06-.599-.069-1.205-.07-1.808-.005-4.977-.003-9.953-.003-14.93v-.44h4.584v.462c0 4.466-.005 8.933.004 13.4.002 1.115.096 2.224.421 3.298.537 1.771 1.739 2.78 3.517 2.996 2.18.264 4.33.004 6.443-.594.3-.084.392-.23.392-.545-.01-6.185-.007-12.37-.007-18.555V9.51h4.582v.461c0 7.038-.002 14.076.008 21.114 0 .341-.09.487-.425.58-2.683.745-5.406 1.241-8.181 1.437-.09.006-.177.04-.265.061h-2.65ZM96.363 32.59h-4.256c-.802 0-1.604-.012-2.405.006-.265.006-.413-.068-.54-.318-1.86-3.68-3.73-7.355-5.599-11.03-2.553-5.02-5.107-10.039-7.662-15.057a.55.55 0 0 0-.215-.24v26.615h-4.01V1.93c.106-.007.218-.02.33-.02 2.091 0 4.183.003 6.273-.006.24 0 .366.073.48.298 4.444 8.736 8.896 17.469 13.347 26.201.047.091.1.178.219.254V1.938h4.038V32.59ZM109.221 33.163c-.561-.074-1.123-.138-1.681-.225-1.307-.203-2.556-.594-3.696-1.292-1.816-1.113-2.758-2.79-2.975-4.91a16.244 16.244 0 0 1-.068-1.666c-.005-5.035-.003-10.071-.003-15.107v-.446h4.584v.454c0 4.55-.006 9.1.004 13.65.002 1.068.12 2.127.447 3.15.556 1.742 1.769 2.694 3.513 2.905 2.134.257 4.237-.01 6.311-.559.369-.097.505-.271.505-.684-.016-6.15-.011-12.3-.011-18.45v-.471h4.561c.007.132.021.257.021.383.001 7.085-.001 14.171.007 21.257.001.29-.084.412-.356.489-2.693.756-5.427 1.26-8.214 1.457-.101.007-.2.043-.3.065h-2.649Z"/></g><path d="M48.239 81.126c0 1.044-.36 1.914-1.08 2.61-.708.684-1.794 1.026-3.258 1.026h-2.412V90H39.85V77.454h4.05c1.416 0 2.49.342 3.222 1.026.744.684 1.116 1.566 1.116 2.646ZM43.9 83.412c.912 0 1.584-.198 2.016-.594.432-.396.648-.96.648-1.692 0-1.548-.888-2.322-2.664-2.322h-2.412v4.608H43.9Zm15.122-3.276V90h-1.638v-1.458c-.312.504-.75.9-1.314 1.188a4.047 4.047 0 0 1-1.836.414c-.768 0-1.458-.156-2.07-.468a3.582 3.582 0 0 1-1.458-1.44c-.348-.636-.522-1.41-.522-2.322v-5.778h1.62v5.562c0 .972.246 1.722.738 2.25.492.516 1.164.774 2.016.774.876 0 1.566-.27 2.07-.81.504-.54.756-1.326.756-2.358v-5.418h1.638Zm4.403 1.836c.336-.588.828-1.068 1.476-1.44.648-.372 1.386-.558 2.214-.558.888 0 1.686.21 2.394.63a4.446 4.446 0 0 1 1.674 1.782c.408.756.612 1.638.612 2.646 0 .996-.204 1.884-.612 2.664a4.504 4.504 0 0 1-1.692 1.818c-.708.432-1.5.648-2.376.648-.852 0-1.602-.186-2.25-.558-.636-.372-1.116-.846-1.44-1.422V90h-1.638V76.68h1.638v5.292Zm6.696 3.06c0-.744-.15-1.392-.45-1.944a3.098 3.098 0 0 0-1.224-1.26 3.314 3.314 0 0 0-1.674-.432c-.6 0-1.158.15-1.674.45-.504.288-.912.714-1.224 1.278-.3.552-.45 1.194-.45 1.926 0 .744.15 1.398.45 1.962.312.552.72.978 1.224 1.278a3.379 3.379 0 0 0 1.674.432c.612 0 1.17-.144 1.674-.432.516-.3.924-.726 1.224-1.278.3-.564.45-1.224.45-1.98Zm8.636-5.076c1.2 0 2.172.366 2.916 1.098.744.72 1.116 1.764 1.116 3.132V90h-1.62v-5.58c0-.984-.246-1.734-.738-2.25-.492-.528-1.164-.792-2.016-.792-.864 0-1.554.27-2.07.81-.504.54-.756 1.326-.756 2.358V90h-1.638v-9.864h1.638v1.404a3.266 3.266 0 0 1 1.314-1.17 4.16 4.16 0 0 1 1.854-.414Zm15.456.18V90h-1.638v-1.458c-.312.504-.75.9-1.314 1.188a4.047 4.047 0 0 1-1.836.414c-.768 0-1.458-.156-2.07-.468a3.582 3.582 0 0 1-1.458-1.44c-.348-.636-.522-1.41-.522-2.322v-5.778h1.62v5.562c0 .972.246 1.722.738 2.25.492.516 1.164.774 2.016.774.876 0 1.566-.27 2.07-.81.504-.54.756-1.326.756-2.358v-5.418h1.638Zm4.404 1.836c.336-.588.828-1.068 1.476-1.44.648-.372 1.386-.558 2.214-.558.888 0 1.686.21 2.394.63a4.446 4.446 0 0 1 1.674 1.782c.408.756.612 1.638.612 2.646 0 .996-.204 1.884-.612 2.664a4.504 4.504 0 0 1-1.692 1.818c-.708.432-1.5.648-2.376.648-.852 0-1.602-.186-2.25-.558-.636-.372-1.116-.846-1.44-1.422V90H96.98V76.68h1.638v5.292Zm6.696 3.06c0-.744-.15-1.392-.45-1.944a3.098 3.098 0 0 0-1.224-1.26 3.314 3.314 0 0 0-1.674-.432c-.6 0-1.158.15-1.674.45-.504.288-.912.714-1.224 1.278-.3.552-.45 1.194-.45 1.926 0 .744.15 1.398.45 1.962.312.552.72.978 1.224 1.278a3.379 3.379 0 0 0 1.674.432c.612 0 1.17-.144 1.674-.432.516-.3.924-.726 1.224-1.278.3-.564.45-1.224.45-1.98Z" fill="#A0A0A0"/></svg>
